X:7
T: Haescher des Herodes
N: D0007A
O: Europa, Mitteleuropa, Lothringen, Morsbach ( Kr. Forbach )
N: Verzierung; Variante zu D0007
R: Legenden - Lied, Weihnachten
M: 3/4
L: 1/8
K: G
=F2 | _B3AG2 | =F2F2
_Bc | d4c2 | _B4
d2 | c2c2dc | _B2G2
A2 | _B2G2A2 | G4

@@@ Tune index: 2529
